X:1
T:David’s Harp, 88.88.88
T:David’s Harp, 88.88.88
T:Robert King, 1722
T:Public Domain Courtesy of the Cyber Hymnal™
C:Robert King, 1722
Z:Public Domain
Z:Courtesy of the Cyber Hymnal™
%%score ( 1 2 ) ( 3 4 )
L:1/8
Q:1/4=105
M:none
K:D
V:1 treble 
V:2 treble 
V:3 bass 
V:4 bass 
V:1
 [A,F]2 [A,E][B,D] C2 [B,D]2 | [DE]2 (FG) [DF]3 E | [DF]2 [D^G]2 A2 [CA]2 | [FA]3 [E^G] [EA]4 | %4
 [Dd]2 [Dd][Dc] [DB]2 [GB]2 | [Gc]3 [Gd] [F^A]4 | [FB]2 ([FB][EA]) [DG]2 [CF]2 | %7
 [B,E]3 [CF] [CF]4 | z2 [DB]2 [E^G]2 [B,E]2 | A2 [Cc]2 [FB]2 (cd) | [Ec]6 [Dd]2 | %11
 [DB]2 [EG]2 E2 (FG) | E3 D D4 |] %13
V:2
 x4 C2 x2 | x2 C2 x2 E x | x4 (ED) x2 | x8 | x8 | x8 | x8 | x8 | x8 | (ED) x3 E2 x | x8 | %11
 x4 E2 D2 | (D2 C)D D4 |] %13
V:3
 D,2 [C,E,][B,,^G,] (A,=G,) [B,,F,]2 | [G,,B,]2 [A,,A,]2 [D,A,]3 [C,A,] | %2
 A,2 [B,,B,]2 (CB,) [F,A,]2 | [D,B,]3 [E,B,] [A,,C]4 | [F,A,]2 [F,A,][F,A,] [G,B,]2 D2 | %5
 [E,C]3 [E,C] [F,C]4 | [D,F,]2 [D,F,][C,A,] [B,,B,]2 [A,,F,]2 | [G,,B,]3 [F,,^A,] [F,,A,]4 | %8
 z2 [B,,B,]2 [E,B,]2 [D,^G,]2 | [C,A,]2 [A,,A,]2 [D,A,]2 [E,^G,]2 | [A,,A,]6 [F,A,]2 | %11
 [G,B,]2 [E,B,]2 [C,A,]2 ([D,A,][G,,B,]) | (A,2 G,)[D,F,] [D,F,]4 |] %13
V:4
 D,2 A,,2 x4 | x8 | (D,C,) x A,,2 x3 | x8 | x6 (G,F,) | x8 | x8 | x8 | x8 | x8 | x8 | x8 | %12
 A,,3 x5 |] %13

